X:1
T:Title
%%score [ ( 1 2 ) ( 3 4 ) ] { ( 5 6 ) | 7 }
L:1/8
Q:1/4=120
M:4/4
K:G
V:1 treble nm="Midi_74"
V:2 treble 
V:3 bass nm="Midi_74"
V:4 bass 
V:5 treble nm="Org."
V:6 treble 
V:7 bass 
V:1
 d8 | (A3 B) c4 | B8 || G8 | A4 D4 | G4 G4 | F8 || B8 | (F3 G) A4 | G8 || c8 | %11
 d4"^William Henry Havergal\n(1793-1870)" G4 | A4 A4 | G8 |] %14
V:2
 G8 | G4 F4 | G8 || G8 | F4 D4 | D4 ^C4 | D8 || E8 | E4 ^D4 | E8 || E8 | G4 G4 | G4 F4 | G8 |] %14
V:3
 D8 | E4 D4 | D8 || B,8 | A,4 A,4 | B,4 A,4 | A,8 || B,8 | C4 B,4 | B,8 || C8 | (B,3 C) D4 | %12
 C4 (D2 C2) | B,8 |] %14
V:4
 B,,8 | C,4 D,4 | G,,8 || G,8 | (D,3 E,) F,4 | E,4 A,4 | D,8 || G,,8 | A,,4 B,,4 | E,8 || C,8 | %11
 (G,,3 A,,) B,,4 | C,4 D,4 | G,,8 |] %14
V:5
 [Dd]8 | A3 B c4 | B8 || G8 | A4 D4 | G4 G4 | F8 || B8 | F3 G A4 | G8 || c8 | d4 G4 | A4 [FA]4 | %13
 G8 |] %14
V:6
 G8 | [EG]4 [DF]4 | [DG]8 || [B,DG]8 | [A,F]4 A,4 | [B,D]4 ^C4 | D8 || [B,E]8 | [CE]4 [B,^D]4 | %9
 [B,E]8 || [EG]8 | [DB]4 D4 | [EG]4 D2 C2 | [B,G]8 |] %14
V:7
 B,,8 | C,4 D,4 | G,,8 || G,8 | D,3 E, F,4 | E,4 A,4 | [D,A,]8 || G,,8 | A,,4 B,,4 | E,8 || C,8 | %11
 G,,3 A,, B,,4 | C,4 D,4 | G,,8 |] %14

